X:1
T:Title
%%score { 1 | ( 2 3 ) }
L:1/8
Q:1/4=84
M:6/8
K:G
V:1 treble nm="Grand Piano"
V:2 treble 
V:3 treble 
V:1
 d>cB BAG | [EG]2 [CE] [CE]3 | [B,D]>[B,D][B,D] [B,DG]2 [B,DG] | [DGB][CFA][B,G] [DFA]3 | %4
w: H.~E.~Engle * * * * *||||
 B>cd BAG | [B,G][CA][DB] [Ec]2 [Ge] | [Gd][GB][B,G] [GB][GB][FA] | G6 | d>dd d3 | %9
w: |||||
 [Ge]>[Ge][Ge] [Ge]3 | d>cB [Bd]cB | BAG [FA]3 | B>cd BAG | [Gc]2 [Gd] [Ge]3 | %14
w: |||||
 [Gd]>[DGB][B,G] [DGB][DGB][CFA] | [B,G]6 |] %16
w: ||
V:2
 [G,B,G]>[G,CG][G,DG] [G,DG][G,CD][K:bass][G,B,D] | [C,C]2 [C,G,] [C,G,]3 | %2
 [G,,G,]>[G,,G,][G,,G,] G,,2 G,, | G,G,G, D,3 | [G,DG]>[G,CG][G,B,G] [G,DG][G,CD][K:bass][G,B,D] | %5
 [G,,G,]2 [G,,G,] [C,G,]2 [C,C] | [D,G,B,][D,G,D][D,G,] [D,D][D,D][D,C] | [G,B,]6 | %8
 [G,B,G]>[G,B,G][G,B,G] [G,B,G]3 | [C,C]>[C,C][C,C] [C,C]3 | [G,B,G]>[G,CG][G,DG] z A[G,DG] | %11
 [G,DG][K:bass][F,D][E,^CE] [D,D]3 | [G,DG]>[G,CG][G,B,G] [G,DG][G,CD][K:bass][=F,B,D] | %13
 [E,C]2 [D,B,] [C,C]3 | [D,B,]>D,D, D,D,D, | G,6 |] %16
V:3
 x5[K:bass] x | x6 | x6 | x6 | x5[K:bass] x | x6 | x6 | x6 | x6 | x6 | z3 .[G,D]3 | x[K:bass] x5 | %12
 x5[K:bass] x | x6 | x6 | x6 |] %16

